packages/sources/icons/src/vitamix/printer-fill.svg

<svg width="16" height="16" viewBox="0 0 16 16" fill="none" xmlns="http://www.w3.org/2000/svg">
<path fill-rule="evenodd" clip-rule="evenodd" d="M11.3333 1.33334H4.66667C4.29848 1.33334 4 1.63182 4 2.00001V4.00001H12V2.00001C12 1.63182 11.7015 1.33334 11.3333 1.33334ZM12.6667 10V13.3333H14C14.3682 13.3333 14.6667 13.0349 14.6667 12.6667V6.00001C14.6667 5.63182 14.3682 5.33334 14 5.33334H2C1.63181 5.33334 1.33333 5.63182 1.33333 6.00001V12.6667C1.33333 13.0349 1.63181 13.3333 2 13.3333H3.33333V10H12.6667ZM11.3333 11.3333H4.66667V14.6667H11.3333V11.3333ZM3.33333 6.66668V8.00001H5.33333V6.66668H3.33333Z" fill="#001018"/>
</svg>

<svg width="16" height="16" fill="none" xmlns="http://www.w3.org/2000/svg"><path fill-rule="evenodd" clip-rule="evenodd" d="M11.333 1.333H4.667A.667.667 0 0 0 4 2v2h8V2a.667.667 0 0 0-.667-.667zM12.667 10v3.333H14a.667.667 0 0 0 .667-.666V6A.667.667 0 0 0 14 5.333H2A.667.667 0 0 0 1.333 6v6.667c0 .368.299.666.667.666h1.333V10h9.334zm-1.334 1.333H4.667v3.334h6.666v-3.334zm-8-4.666V8h2V6.667h-2z" fill="#001018"/></svg>
